www/assets/icons/camera_enhance.svg

<svg xmlns="http://www.w3.org/2000/svg" width="24" height="24" viewBox="0 0 24 24" fill='currentColor'><path d="M9 3 7.17 5H4c-1.1 0-2 .9-2 2v12c0 1.1.9 2 2 2h16c1.1 0 2-.9 2-2V7c0-1.1-.9-2-2-2h-3.17L15 3zm3 15c-2.76 0-5-2.24-5-5s2.24-5 5-5 5 2.24 5 5-2.24 5-5 5"/><path d="m12 17 1.25-2.75L16 13l-2.75-1.25L12 9l-1.25 2.75L8 13l2.75 1.25z"/></svg>

<svg width="24" height="24" viewBox="0 0 24 24" xmlns="http://www.w3.org/2000/svg" fill='currentColor'><path d="M9 3L7.17 5H4C2.9 5 2 5.9 2 7V19C2 20.1 2.9 21 4 21H20C21.1 21 22 20.1 22 19V7C22 5.9 21.1 5 20 5H16.83L15 3H9ZM12 18C9.24 18 7 15.76 7 13C7 10.24 9.24 8 12 8C14.76 8 17 10.24 17 13C17 15.76 14.76 18 12 18Z"/><path d="M12 17L13.25 14.25L16 13L13.25 11.75L12 9L10.75 11.75L8 13L10.75 14.25L12 17Z"/></svg>
